!!!!SEGMENT: pl-kk--kk-i-14--010_gorczycki-grzegorz-gerwazy--haec-dies-quam-fecit.krn
!!!cenid: 17xx:2198
!!!COM: Gorczycki, Grzegorz Gerwazy
!!!COM-rismID: pe30009207
!!!CDT: ~1666-1734/04/30
!!!CNT: Polish
!!!OTL: Haec dies quam fecit
!!!PDT:
!!!AGN: Sacred
!!!SMS-siglum: PL-Kk
!!!SMS-shelfmark: Kk.I.14
!!!SMS-shelfwork: 010 W
!!!SMS-variant:
!!!SMS-altvar:
!!!NIFC-rismSourceID: 1001154375
!!!NIFC-rismChildID: 1001154404
!!!NIFC-islandoraID: pl-kk:2607
!!!URL-pdf-islandora: https://repozytorium.nifc.pl/islandora/object/pl-kk%3A2607/datastream/PDF/view
!!!URL-scan: https://polish.musicsources.pl/pl/lokalizacje/galeria/rekopisy/5768 @EN{Scan on Polish Music Sources Website} @PL{Skany w portalu Dziedzictwo Muzyki Polskiej w otwartym dostępie}
!!!ONB-nifc: UWAGA: T (skan 0007), B (0020). Następny utwór: Laetare Jerusalem
!!!AIN: 1 empty 1 soprn
!!!key:
**kern	**text	**kern	**text
*part2	*part2	*part1	*part1
*staff2	*staff2	*staff1	*staff1
*Iempty	*	*Isoprn	*
*I"Baſſo.	*	*I"[Soprano]	*
*I'B	*	*I'[S]	*
*clefF4	*	*clefC1	*
*k[]	*	*k[]	*
*C:	*	*C:	*
*M2/1	*	*M2/1	*
*met(C|)	*	*met(C|)	*
=1-	=1-	=1-	=1-
00r	.	2r	.
.	.	2g/	Haec
.	.	1a	di-
=2-	=2-	=2-	=2-
.	.	2g/	-es
*	*	*2\right	*
.	.	2cc\	quam
.	.	2cc\	fe-
!	!	!LO:TX:t=P:problem=kreska pseudotaktowa	!
.	.	2b\	-cit
=3-	=3-	=3-	=3-
00r	.	2cc\	Do-
.	.	2b\	.
.	.	2.a\	.
!	!	!LO:TX:t=P:problem=kreska pseudotaktowa	!
.	.	4a\	-mi-
=4-	=4-	=4-	=4-
.	.	2g/	-nus
.	.	2dd\	quam
.	.	2dd\	fe-
.	.	2dd\	-cit
=5-	=5-	=5-	=5-
0rE	.	2.cc\	Do-
.	.	8dd\L	.
.	.	8cc\J	.
!	!	!LO:LB:g=original	!
.	.	2.b\	.
.	.	8cc\L	.
!	!	!LO:TX:t=P:problem=kreska pseudotaktowa	!
.	.	8b\J	.
=6-	=6-	=6-	=6-
1rE	.	2.a\	.
.	.	4a\	-mi-
2r	.	2b\	-nus
2C/	Haec	2ee\	quam
=7-	=7-	=7-	=7-
!LO:TX:t=P:problem=kreska pseudotaktowa	!	!	!
1D	di-	4dd\	fe-
.	.	4cc\	.
.	.	4dd\	.
!	!	!LO:TX:t=P:problem=kreska pseudotaktowa	!
.	.	4b\	.
2C/	-es	2ee\	.
*2\right	*	*	*
!LO:TX:t=P:problem=kreska pseudotaktowa	!	!	!
2G\	quam	2b\	-cit
=8-	=8-	=8-	=8-
2G\	fe-	2cc\	Do-
!LO:TX:t=P:problem=kreska pseudotaktowa	!	!	!
2F#X\	-cit	2a\	.
2G\	Do-	2b\	.
4F#X\	.	4a\	.
!LO:TX:t=P:problem=kreska pseudotaktowa	!	!	!
4E\	.	4g/	.
=9-	=9-	=9-	=9-
4D\	.	4f#X/	.
4E\	.	4g/	.
4F#X\	.	4a/	.
!	!	!LO:TX:t=P:problem=kreska pseudotaktowa	!
4D\	.	4f#X/	.
!LO:LB:g=original	!	!	!
4E\	.	4g/	.
4D\	.	4f#/	.
4E\	.	4g/	.
!LO:TX:t=P:problem=kreska pseudotaktowa	!	!	!
4F#X\	.	4a/	.
!	!	!LO:LB:g=original	!
=10-	=10-	=10-	=10-
4G\	.	4b\	.
4D\	.	4a\	.
1G	.	4b\	.
.	.	4g\	.
.	.	2cc\	.
!LO:TX:t=P:problem=kreska pseudotaktowa	!	!	!
2F#X\	-mi-	2a\	-mi-
=11-	=11-	=11-	=11-
2G\	-nus	2b\	-nus
!LO:TX:t=P:problem=kreska pseudotaktowa	!	!LO:TX:t=P:problem=kreska pseudotaktowa	!
2r	.	2ee\	quam
00r	.	2ff\	fe-
.	.	2dd\	-cit
=12-	=12-	=12-	=12-
.	.	2ee\	Do-
.	.	4dd\	.
.	.	4cc\	.
.	.	4b\	.
.	.	4cc\	.
.	.	4dd\	.
!	!	!LO:TX:t=P:problem=kreska pseudotaktowa	!
.	.	4b\	.
=13-	=13-	=13-	=13-
.	.	4cc\	.
.	.	4b\	.
.	.	4cc\	.
.	.	4dd\	.
0rE	.	4ee\	.
.	.	4dd\	.
.	.	4ee\	.
.	.	4cc\	.
=14-	=14-	=14-	=14-
.	.	2ff\	.
.	.	2dd\	-mi-
2rC	.	1ee	-nus
2C/	Haec	.	.
!	!	!LO:LB:g=original	!
=15-	=15-	=15-	=15-
!LO:TX:t=P:problem=kreska pseudotaktowa	!	!	!
1D	di-	0r	.
2C,</	-es	.	.
!LO:TX:t=P:problem=kreska pseudotaktowa	!	!	!
2G\	quam	.	.
=16-	=16-	=16-	=16-
2G\	fe-	2r	.
!LO:TX:t=P:problem=kreska pseudotaktowa	!	!LO:TX:t=P:problem=kreska pseudotaktowa	!
2G\	-cit	2g/	Haec
2.Fny\	Do-	1a	di-
8G\L	.	.	.
8F\J	.	.	.
!LO:LB:g=original	!	!	!
=17-	=17-	=17-	=17-
2.E\	.	2g/	-es
.	.	2cc\	quam
8F\L	.	.	.
!LO:TX:t=P:problem=kreska pseudotaktowa	!	!	!
8E\J	.	.	.
2.D/	.	2cc\	fe-
!	!	!LO:TX:t=P:problem=kreska pseudotaktowa	!
.	.	2b\	-cit
4D/	-mi-	.	.
=18-	=18-	=18-	=18-
2C,</	-nus	2cc\	Do-
!LO:TX:t=P:problem=kreska pseudotaktowa	!	!	!
2G\	quam	4b\	.
.	.	4a\	.
2c\	fe-	4g\	.
.	.	4a\	.
2B\	-cit	4b\	.
!	!	!LO:TX:t=P:problem=kreska pseudotaktowa	!
.	.	4g\	.
=19-	=19-	=19-	=19-
2.A\	Do-	4a\	.
.	.	4g\	.
.	.	4a\	.
!LO:TX:t=P:problem=kreska pseudotaktowa	!	!	!
4G\	.	4b\	.
4F\	.	4cc\	.
4E\	.	4g/	.
4F\	.	1cc\	.
!LO:TX:t=P:problem=kreska pseudotaktowa	!	!	!
4D\	.	.	.
=20-	=20-	=20-	=20-
2.G\	.	.	.
!	!	!LO:TX:t=P:problem=kreska pseudotaktowa	!
.	.	2b\	-mi-
4G\	-mi-	.	.
!	!	!LO:PB:g=original	!
2C/	-nus	2cc\	-nus
!LO:TX:t=P:problem=kreska pseudotaktowa	!	!	!
2r	.	2dd\	quam
=21-	=21-	=21-	=21-
0r	.	2cc\	fe-
.	.	2b\	-cit
.	.	2.a\	Do-
.	.	4a\	-mi-
=22-	=22-	=22-	=22-
2r	.	2b\	-nus
*	*	*	*ij
!LO:TX:t=P:problem=kreska pseudotaktowa	!	!LO:TX:t=P:problem=kreska pseudotaktowa	!
2E\	quam	2gg\	quam
!LO:LB:g=original	!	!	!
2F\	fe-	2ff\	fe-
2C/	-cit	2ee\	-cit
=23-	=23-	=23-	=23-
1.G	Do-	2dd\	Do-
.	.	2ee\	.
.	.	2.dd\	.
2GG/	-mi-	.	.
.	.	4dd\	-mi-
=24-	=24-	=24-	=24-
0Cl;	-nus	0ccl;;	-nus
*	*	*	*Xij
=25-	=25-	=25-	=25-
*M3/4	*	*M3/4	*
4r	.	4r	.
4G\	E-	4b\	E-
!LO:TX:t=P:problem=kreska pseudotaktowa	!	!	!
4D\	-xul-	4a\	-xul-
=26-	=26-	=26-	=26-
2G\	-te-	2b\	-te-
!LO:TX:t=P:problem=kreska pseudotaktowa	!	!	!
4G\	-mus	4b\	-mus
!	!	!LO:LB:g=original	!
=27-	=27-	=27-	=27-
4r	.	4r	.
*	*	*	*ij
4c\	e-	4cc\	E-
!LO:TX:t=P:problem=kreska pseudotaktowa	!	!	!
4G\	-xul-	4b\	-xul-
=28-	=28-	=28-	=28-
2c\	-te-	2cc\	-te-
!LO:TX:t=P:problem=kreska pseudotaktowa	!	!LO:TX:t=P:problem=kreska pseudotaktowa	!
4c\	-mus	4cc\	-mus
*	*	*	*Xij
=29-	=29-	=29-	=29-
!LO:N:vis=0	!	!	!
1.rB	.	4r	.
.	.	4dd\	et
.	.	4dd\	lae-
=30-	=30-	=30-	=30-
.	.	4cc\	-te-
.	.	8b\	-mur
.	.	8b\	in
!	!	!LO:TX:t=P:problem=kreska pseudotaktowa	!
.	.	4a\	e-
=31-	=31-	=31-	=31-
4r	.	4b\	-a
4G\	e-	4b\	e-
4D\	-xul-	4a\	-xul-
=32-	=32-	=32-	=32-
2G\	-te-	2b\	-te-
!LO:TX:t=P:problem=kreska pseudotaktowa	!	!LO:TX:t=P:problem=kreska pseudotaktowa	!
4G\	-mus	4b\	-mus
!LO:LB:g=original	!	!	!
=33-	=33-	=33-	=33-
4r	.	4r	.
4F#X\	et	4a\	et
!LO:TX:t=P:problem=kreska pseudotaktowa	!	!	!
4F#\	lae-	4a\	lae-
=34-	=34-	=34-	=34-
4G\	-te-	4b\	-te-
8D/	-mur	8a\	-mur
8D/	in	8a\	in
!LO:TX:t=P:problem=kreska pseudotaktowa	!	!	!
4A\	e-	4a\	e-
=35-	=35-	=35-	=35-
2D,</	-a	2.a\	-a
!LO:TX:t=P:problem=kreska pseudotaktowa	!	!	!
4D/	lae-	.	.
!	!	!LO:LB:g=original	!
=36-	=36-	=36-	=36-
4G\	-te-	4r	.
4G\	-mur	4r	.
!LO:TX:t=P:problem=kreska pseudotaktowa	!	!	!
4F#X\	lae-	4dd\	lae-
=37-	=37-	=37-	=37-
4G\	-te-	8dd\L	-te-
.	.	8cc\	.
4G\	-mur	8dd\	.
.	.	8ee\	.
*	*ij	*	*
!LO:TX:t=P:problem=kreska pseudotaktowa	!	!	!
4G\	lae-	8dd\	.
!	!	!LO:TX:t=P:problem=kreska pseudotaktowa	!
.	.	8cc\J	.
=38-	=38-	=38-	=38-
4GG/	-te-	8b\L	.
.	.	8a\	.
4GG/	-mur	8b\	.
*	*Xij	*	*
.	.	8cc\	.
!LO:TX:t=P:problem=kreska pseudotaktowa	!	!	!
4G\	lae-	8b\	.
!	!	!LO:TX:t=P:problem=kreska pseudotaktowa	!
.	.	8a\J	.
=39-	=39-	=39-	=39-
8G\L	-te-	4g/	.
8Fny\	.	.	.
8G\	.	4g/	-mur
8A\	.	.	.
8G\	.	4g/	lae-
8F\J	.	.	.
!LO:LB:g=original	!	!	!
=40-	=40-	=40-	=40-
8E\L	.	4cc\	-te-
8D\	.	.	.
8E\	.	4cc\	-mur
8F\	.	.	.
*	*	*	*ij
!	!	!LO:TX:t=P:problem=kreska pseudotaktowa	!
8E\	.	4cc\	lae-
!LO:TX:t=P:problem=kreska pseudotaktowa	!	!	!
8D\J	.	.	.
=41-	=41-	=41-	=41-
4C/	.	4ee\	-te-
4C,</	-mur	4ee\	-mur
!LO:TX:t=P:problem=kreska pseudotaktowa	!	!	!
4C/	lae-	4ee\	lae-
=42-	=42-	=42-	=42-
4C/	-te-	4gg\	-te-
4C,</	-mur	4gg\	-mur
*	*ij	*	*Xij
!LO:TX:t=P:problem=kreska pseudotaktowa	!	!LO:TX:t=P:problem=kreska pseudotaktowa	!
4c\	lae-	4gg\	lae-
=43-	=43-	=43-	=43-
4c\	-te-	8gg\L	-te-
.	.	8ff\	.
4c,<\	-mur	8gg\	.
*	*Xij	*	*
.	.	8aa\	.
!LO:TX:t=P:problem=kreska pseudotaktowa	!	!	!
4c\	lae-	8gg\	.
.	.	8ff\J	.
!	!	!LO:LB:g=original	!
=44-	=44-	=44-	=44-
8c\L	-te-	8ee\L	.
8B-X\	.	8dd\	.
8c\	.	8ee\	.
8d\	.	8ff\	.
8c\	.	8ee\	.
!LO:TX:t=P:problem=kreska pseudotaktowa	!	!	!
8B-\J	.	8dd\J	.
=45-	=45-	=45-	=45-
8A\L	.	4cc\	.
8G\	.	.	.
8A\	.	4cc\	-mur
8B-y\	.	.	.
8A\	.	4cc\	lae-
!LO:TX:t=P:problem=kreska pseudotaktowa	!	!	!
8G\J	.	.	.
=46-	=46-	=46-	=46-
4F\	.	4ff\	-te-
4F,<\	-mur	4ff\	-mur
*	*	*	*ij
!LO:TX:t=P:problem=kreska pseudotaktowa	!	!LO:TX:t=P:problem=kreska pseudotaktowa	!
4F\	lae-	4fny/	lae-
=47-	=47-	=47-	=47-
4F\	-te-	4a\	-te-
4FF/	-mur	4a\	-mur
*	*ij	*	*
4F\	lae-	4a\	lae-
!LO:LB:g=original	!	!	!
=48-	=48-	=48-	=48-
4F\	-te-	4cc\	-te-
4F,<\	-mur	4cc\	-mur
*	*Xij	*	*Xij
!LO:TX:t=P:problem=kreska pseudotaktowa	!	!	!
4E\	lae-	4cc\	lae-
=49-	=49-	=49-	=49-
4F\	-te-	4a\	-te-
8C,</	-mur	8g\	-mur
8C/	in	8g\	in
!LO:TX:t=P:problem=kreska pseudotaktowa	!	!LO:TX:t=P:problem=kreska pseudotaktowa	!
4G\	e-	4g\	e-
=50-	=50-	=50-	=50-
2C,</	-a	2g/	-a
!LO:TX:t=P:problem=kreska pseudotaktowa	!	!	!
4E\	lae-	4cc\	lae-
=51-	=51-	=51-	=51-
4F\	-te-	4cc\	-te-
4F,<\	-mur	4cc\	-mur
*	*	*	*ij
!LO:TX:t=P:problem=kreska pseudotaktowa	!	!LO:TX:t=P:problem=kreska pseudotaktowa	!
4E\	lae-	4cc\	lae-
!	!	!LO:LB:g=original	!
=52-	=52-	=52-	=52-
4F\	-te-	4cc\	-te-
8C/	-mur	8cc\	-mur
*	*	*	*Xij
8C/	in	8cc\	in
!LO:TX:t=P:problem=kreska pseudotaktowa	!	!LO:TX:t=P:problem=kreska pseudotaktowa	!
4G\	e-	4b\	e-
=53-	=53-	=53-	=53-
*M2/1	*	*M2/1	*
*met(C|)	*	*met(C|)	*
*	*	*2\left	*
2C/	-a	2cc\	-a
!LO:TX:t=P:problem=kreska pseudotaktowa	!	!LO:TX:t=P:problem=powtórzony fragment oznaczony repetycją	!
2r	.	2g/	Haec
00rG	.	1a	di-
=54-	=54-	=54-	=54-
.	.	2g/	-es
*	*	*2\right	*
.	.	2cc\	quam
.	.	2cc\	fe-
!	!	!LO:TX:t=P:problem=kreska pseudotaktowa	!
.	.	2b\	-cit
=55-	=55-	=55-	=55-
.	.	2cc\	Do-
.	.	2b\	.
00rG	.	2.a\	.
!	!	!LO:TX:t=P:problem=kreska pseudotaktowa	!
.	.	4a\	-mi-
=56-	=56-	=56-	=56-
.	.	2g/	-nus
.	.	2dd\	quam
.	.	2dd\	fe-
.	.	2dd\	-cit
=57-	=57-	=57-	=57-
.	.	2.cc\	Do-
.	.	8dd\L	.
.	.	8cc\J	.
!	!	!LO:LB:g=original	!
0rE	.	2.b\	.
.	.	8cc\L	.
!	!	!LO:TX:t=P:problem=kreska pseudotaktowa	!
.	.	8b\J	.
=58-	=58-	=58-	=58-
.	.	2.a\	.
.	.	4a\	-mi-
!LO:TX:t=P:problem=pominięta pauza	!	!	!
2ryy	.	2b\	-nus
4r	.	2ee\	quam
!LO:TX:t=P:problem=powtórzony fragment oznaczony znakiem repetycji	!	!	!
4C/	Haec	.	.
=59-	=59-	=59-	=59-
!LO:TX:t=P:problem=zmiana wysokości dźwięku przy powtórce	!	!	!
1F	di-	4dd\	fe-
.	.	4cc\	.
.	.	4dd\	.
!	!	!LO:TX:t=P:problem=kreska pseudotaktowa	!
.	.	4b\	.
2C/	-es	2ee\	.
!LO:TX:t=P:problem=kreska pseudotaktowa	!	!	!
2G\	quam	2b\	-cit
=60-	=60-	=60-	=60-
2G\	fe-	2cc\	Do-
!LO:TX:t=P:problem=kreska pseudotaktowa	!	!	!
2F#X\	-cit	2a\	.
2G\	Do-	2b\	.
4F#X\	.	4a\	.
!LO:TX:t=P:problem=kreska pseudotaktowa	!	!	!
4E\	.	4g/	.
=61-	=61-	=61-	=61-
4D\	.	4f#X/	.
4E\	.	4g/	.
4F#X\	.	4a/	.
!	!	!LO:TX:t=P:problem=kreska pseudotaktowa	!
4D\	.	4f#X/	.
!LO:LB:g=original	!	!	!
4E\	.	4g/	.
4D\	.	4f#/	.
4E\	.	4g/	.
!LO:TX:t=P:problem=kreska pseudotaktowa	!	!	!
4F#X\	.	4a/	.
!	!	!LO:LB:g=original	!
=62-	=62-	=62-	=62-
4G\	.	4b\	.
4D\	.	4a\	.
1G	.	4b\	.
.	.	4g\	.
.	.	2cc\	.
!LO:TX:t=P:problem=kreska pseudotaktowa	!	!	!
2F#X\	-mi-	2a\	-mi-
=63-	=63-	=63-	=63-
2G\	-nus	2b\	-nus
!LO:TX:t=P:problem=kreska pseudotaktowa	!	!LO:TX:t=P:problem=kreska pseudotaktowa	!
2r	.	2ee\	quam
00r	.	2ff\	fe-
.	.	2dd\	-cit
=64-	=64-	=64-	=64-
.	.	2ee\	Do-
.	.	4dd\	.
.	.	4cc\	.
.	.	4b\	.
.	.	4cc\	.
.	.	4dd\	.
!	!	!LO:TX:t=P:problem=kreska pseudotaktowa	!
.	.	4b\	.
=65-	=65-	=65-	=65-
.	.	4cc\	.
.	.	4b\	.
.	.	4cc\	.
.	.	4dd\	.
0rE	.	4ee\	.
.	.	4dd\	.
.	.	4ee\	.
.	.	4cc\	.
=66-	=66-	=66-	=66-
.	.	2ff\	.
.	.	2dd\	-mi-
2rC	.	1ee	-nus
2C/	Haec	.	.
!	!	!LO:LB:g=original	!
=67-	=67-	=67-	=67-
!LO:TX:t=P:problem=kreska pseudotaktowa	!	!	!
1D	di-	0r	.
2C,</	-es	.	.
!LO:TX:t=P:problem=kreska pseudotaktowa	!	!	!
2G\	quam	.	.
=68-	=68-	=68-	=68-
2G\	fe-	2r	.
!LO:TX:t=P:problem=kreska pseudotaktowa	!	!LO:TX:t=P:problem=kreska pseudotaktowa	!
2G\	-cit	2g/	Haec
2.Fny\	Do-	1a	di-
8G\L	.	.	.
8F\J	.	.	.
!LO:LB:g=original	!	!	!
=69-	=69-	=69-	=69-
2.E\	.	2g/	-es
.	.	2cc\	quam
8F\L	.	.	.
!LO:TX:t=P:problem=kreska pseudotaktowa	!	!	!
8E\J	.	.	.
2.D/	.	2cc\	fe-
!	!	!LO:TX:t=P:problem=kreska pseudotaktowa	!
.	.	2b\	-cit
4D/	-mi-	.	.
=70-	=70-	=70-	=70-
2C,</	-nus	2cc\	Do-
!LO:TX:t=P:problem=kreska pseudotaktowa	!	!	!
2G\	quam	4b\	.
.	.	4a\	.
2c\	fe-	4g\	.
.	.	4a\	.
2Bny\	-cit	4b\	.
!	!	!LO:TX:t=P:problem=kreska pseudotaktowa	!
.	.	4g\	.
=71-	=71-	=71-	=71-
2.A\	Do-	4a\	.
.	.	4g\	.
.	.	4a\	.
!LO:TX:t=P:problem=kreska pseudotaktowa	!	!	!
4G\	.	4b\	.
4F\	.	4cc\	.
4E\	.	4g/	.
4F\	.	1cc\	.
!LO:TX:t=P:problem=kreska pseudotaktowa	!	!	!
4D\	.	.	.
=72-	=72-	=72-	=72-
2.G\	.	.	.
!	!	!LO:TX:t=P:problem=kreska pseudotaktowa	!
.	.	2b\	-mi-
4G\	-mi-	.	.
!	!	!LO:PB:g=original	!
2C/	-nus	2cc\	-nus
!LO:TX:t=P:problem=kreska pseudotaktowa	!	!	!
2r	.	2dd\	quam
=73-	=73-	=73-	=73-
0r	.	2cc\	fe-
.	.	2b\	-cit
.	.	2.a\	Do-
.	.	4a\	-mi-
=74-	=74-	=74-	=74-
2r	.	2b\	-nus
*	*	*	*ij
!LO:TX:t=P:problem=kreska pseudotaktowa	!	!LO:TX:t=P:problem=kreska pseudotaktowa	!
2E\	quam	2gg\	quam
!LO:LB:g=original	!	!	!
2F\	fe-	2ff\	fe-
2C/	-cit	2ee\	-cit
=75-	=75-	=75-	=75-
1.G	Do-	2dd\	Do-
.	.	2ee\	.
.	.	2.dd\	.
2GG/	-mi-	.	.
.	.	4dd\	-mi-
=76-	=76-	=76-	=76-
0Cl;	-nus	0ccl;;	-nus
*	*	*	*Xij
==	==	==	==
*-	*-	*-	*-
!!!system-decoration: [(s1,s2)]
!!!RDF**kern: > = above
!!!RDF**kern: < = below
!!!RDF**kern: l = terminal long
!!!ENC: Andrzej Kubiczek
!!!END: 2021-07-20
!!!ENC: Berenika Jozajtis
!!!END: 2021-06-30
!!!YEC: Copyright 2022 Narodowy Instytut Fryderyka Chopina (https://polishscores.org)
!!!YEM: License CC-BY-4.0 (https://creativecommons.org/licenses/by/4.0)
